static/img/menus/ico-cam-capture.svg

<svg xmlns="http://www.w3.org/2000/svg" width="20" height="20" fill="none" viewBox="0 0 20 20"><path stroke="currentColor" d="M3 17.5h14q1.5 0 1.5-1.5V6q0-1.5-1.5-1.5h-3c-.4 0-.5-.333-.5-.5q0-1.5-1.5-1.5H8Q6.5 2.5 6.5 4c0 .167-.1.5-.5.5H3Q1.5 4.5 1.5 6v10q0 1.5 1.5 1.5Z"/><circle cx="10" cy="11" r="3.5" stroke="currentColor"/></svg>

<svg width="20" height="20" viewBox="0 0 20 20" fill="none" xmlns="http://www.w3.org/2000/svg">
<path d="M3 17.5H9H17C18 17.5 18.5 17 18.5 16V6C18.5 5 18 4.5 17 4.5H14C13.6 4.5 13.5 4.16667 13.5 4C13.5 3 13 2.5 12 2.5H8C7 2.5 6.5 3 6.5 4C6.5 4.16667 6.4 4.5 6 4.5H3C2 4.5 1.5 5 1.5 6V16C1.5 17 2 17.5 3 17.5Z" stroke="currentColor"/>
<circle cx="10" cy="11" r="3.5" stroke="currentColor"/>
</svg>
